launcher/android/assets/skins/day/svg/mapLabCache1.svg

<svg enable-background="new 0 0 258.00 258.00" height="258" viewBox="0 0 258 258" width="258" xmlns="http://www.w3.org/2000/svg"><g stroke-linejoin="round"><path d="m153.146 97.25 21.333 22.333 13.334-14.833-21.667-19z" fill="#fff" fill-rule="evenodd" stroke-width="5"/><path d="m183.457 110.408c7.016 10.881 11.087 23.832 11.087 37.731 0 38.568-31.34 69.834-70 69.834-38.6598 0-69.9999-31.266-69.9999-69.834 0-38.567 31.3402-69.8328 69.9999-69.8328 13.462 0 26.037 3.7912 36.71 10.362m-5.918 6.763 24.75-24.7503-.667-4.9997 1-5.1668 3.25-3.4167 7.333-1.1665 7.25 2.1665 5.667 5 6.333 6.8335 4 4.9165 1.75 4.5835-.167 4.8332-1.666 5.9168-5.084 1.5832-7.249 1.4165-2.667.3335-4.583 4.9168-7.667 7.5828-11.667 11" fill="#fff" fill-rule="evenodd" stroke="#000" stroke-width="5"/><path d="m180.971 69.1707 4.312 6.0835 4.761 4.927 5.562 5.25 6.625 3.5 6.407 1.802" fill="none" stroke="#000" stroke-width="3"/><path d="m188.284 135.582c1.425-.081 3.512-1.213 3.612 12.283.278 37.399-30.187 67.718-67.423 67.718-36.3158 0-65.9255-28.836-67.3686-64.955 3.9679-.274 7.9361-.549 9.9201-.686 1.9842-.138 1.9842-.138 2.1448 1.209.1604 1.347.4816 4.04 1.0703 7.057.5884 3.017 1.4446 6.357 2.9964 9.994 1.5517 3.636 3.7993 7.569 6.8762 11.583 3.0769 4.013 6.983 8.108 10.2737 10.882 3.291 2.774 5.9668 4.229 8.0804 5.199 2.1137.969 3.6657 1.454 4.4417 1.697.776.242.776.242.562-.189-.215-.431-.642-1.293-1.766-2.693-1.124-1.401-2.9433-3.341-5.1641-5.953-2.2206-2.613-4.8426-5.9-7.1704-9.482-2.3276-3.583-4.3611-7.462-5.6186-11.664-1.2576-4.202-1.7391-8.727-1.9266-12.31-.1871-3.582-.0802-6.222-.0266-7.542.0535-1.32.0535-1.32 1.7122-1.562 1.6589-.243 4.9768-.728 11.7458-1.697 6.7693-.97 16.9893-2.425 27.1833-3.556s20.361-1.939 27.207-2.441 10.371-.697 16.257-1.128c5.887-.431 14.134-1.098 22.381-1.764z" fill="#97d324" stroke-width="5"/><g stroke-width=".2"><path d="m168.479 95.9165c2.578 0 4.667 1.8657 4.667 4.1665 0 2.302-2.089 4.167-4.667 4.167-2.577 0-4.666-1.865-4.666-4.167 0-2.3008 2.089-4.1665 4.666-4.1665z" fill="#96d224"/><path d="m154.979 142.667c4.188 0 7.584 3.432 7.584 7.666s-3.396 7.667-7.584 7.667-7.583-3.433-7.583-7.667 3.395-7.666 7.583-7.666z" fill="#fff"/><path d="m161.646 173.833c2.807 0 5.083 2.164 5.083 4.834 0 2.669-2.276 4.833-5.083 4.833s-5.083-2.164-5.083-4.833c0-2.67 2.276-4.834 5.083-4.834z" fill="#fff"/><path d="m144.646 190.833c3.544 0 6.417 2.687 6.417 6 0 3.314-2.873 6-6.417 6s-6.417-2.686-6.417-6c0-3.313 2.873-6 6.417-6z" fill="#fff"/><path d="m162.563 116.167c3.682 0 6.666 2.873 6.666 6.416 0 3.544-2.984 6.417-6.666 6.417s-6.667-2.873-6.667-6.417c0-3.543 2.985-6.416 6.667-6.416z" fill="#96d224"/></g></g></svg>

﻿<?xml version="1.0" encoding="utf-8"?>
<!DOCTYPE svg PUBLIC "-//W3C//DTD SVG 1.1//EN" "http://www.w3.org/Graphics/SVG/1.1/DTD/svg11.dtd">
<svg xmlns="http://www.w3.org/2000/svg" xmlns:xlink="http://www.w3.org/1999/xlink" version="1.1" baseProfile="full" width="258" height="258" viewBox="0 0 258.00 258.00" enable-background="new 0 0 258.00 258.00" xml:space="preserve">
	<g>
		<path fill="#FFFFFF" fill-opacity="1" fill-rule="evenodd" stroke-width="5" stroke-linejoin="round" d="M 153.146,97.25L 174.479,119.583L 187.813,104.75L 166.146,85.75L 153.146,97.25 Z "/>
		<path fill="#FFFFFF" fill-opacity="1" fill-rule="evenodd" stroke-width="5" stroke-linejoin="round" stroke="#000000" stroke-opacity="1" d="M 183.457,110.408C 190.473,121.289 194.544,134.24 194.544,148.139C 194.544,186.707 163.204,217.973 124.544,217.973C 85.8842,217.973 54.5441,186.707 54.5441,148.139C 54.5441,109.572 85.8843,78.3062 124.544,78.3062C 138.006,78.3062 150.581,82.0974 161.254,88.6682M 155.336,95.4312L 180.086,70.6809L 179.419,65.6812L 180.419,60.5144L 183.669,57.0977L 191.002,55.9312L 198.252,58.0977L 203.919,63.0977L 210.252,69.9312L 214.252,74.8477L 216.002,79.4312L 215.835,84.2644L 214.169,90.1812L 209.085,91.7644L 201.836,93.1809L 199.169,93.5144L 194.586,98.4312L 186.919,106.014L 175.252,117.014"/>
		<path fill="none" stroke-width="3" stroke-linejoin="round" stroke="#000000" stroke-opacity="1" d="M 180.971,69.1707L 185.283,75.2542L 190.044,80.1812L 195.606,85.4312L 202.231,88.9312L 208.638,90.7332"/>
		<path fill="#97D324" fill-opacity="1" stroke-width="5" stroke-linejoin="round" d="M 188.284,135.582C 189.709,135.501 191.796,134.369 191.896,147.865C 192.174,185.264 161.709,215.583 124.473,215.583C 88.1572,215.583 58.5475,186.747 57.1044,150.628C 61.0723,150.354 65.0405,150.079 67.0245,149.942C 69.0087,149.804 69.0087,149.804 69.1693,151.151C 69.3297,152.498 69.6509,155.191 70.2396,158.208C 70.828,161.225 71.6842,164.565 73.236,168.202C 74.7877,171.838 77.0353,175.771 80.1122,179.785C 83.1891,183.798 87.0952,187.893 90.3859,190.667C 93.6769,193.441 96.3527,194.896 98.4663,195.866C 100.58,196.835 102.132,197.32 102.908,197.563C 103.684,197.805 103.684,197.805 103.47,197.374C 103.255,196.943 102.828,196.081 101.704,194.681C 100.58,193.28 98.7607,191.34 96.5399,188.728C 94.3193,186.115 91.6973,182.828 89.3695,179.246C 87.0419,175.663 85.0084,171.784 83.7509,167.582C 82.4933,163.38 82.0118,158.855 81.8243,155.272C 81.6372,151.69 81.7441,149.05 81.7977,147.73C 81.8512,146.41 81.8512,146.41 83.5099,146.168C 85.1688,145.925 88.4867,145.44 95.2557,144.471C 102.025,143.501 112.245,142.046 122.439,140.915C 132.633,139.784 142.8,138.976 149.646,138.474C 156.492,137.972 160.017,137.777 165.903,137.346C 171.79,136.915 180.037,136.248 188.284,135.582 Z "/>
		<path fill="#96D224" fill-opacity="1" stroke-width="0.2" stroke-linejoin="round" d="M 168.479,95.9165C 171.057,95.9165 173.146,97.7822 173.146,100.083C 173.146,102.385 171.057,104.25 168.479,104.25C 165.902,104.25 163.813,102.385 163.813,100.083C 163.813,97.7822 165.902,95.9165 168.479,95.9165 Z "/>
		<path fill="#FFFFFF" fill-opacity="1" stroke-width="0.2" stroke-linejoin="round" d="M 154.979,142.667C 159.167,142.667 162.563,146.099 162.563,150.333C 162.563,154.567 159.167,158 154.979,158C 150.791,158 147.396,154.567 147.396,150.333C 147.396,146.099 150.791,142.667 154.979,142.667 Z "/>
		<path fill="#FFFFFF" fill-opacity="1" stroke-width="0.2" stroke-linejoin="round" d="M 161.646,173.833C 164.453,173.833 166.729,175.997 166.729,178.667C 166.729,181.336 164.453,183.5 161.646,183.5C 158.839,183.5 156.563,181.336 156.563,178.667C 156.563,175.997 158.839,173.833 161.646,173.833 Z "/>
		<path fill="#FFFFFF" fill-opacity="1" stroke-width="0.2" stroke-linejoin="round" d="M 144.646,190.833C 148.19,190.833 151.063,193.52 151.063,196.833C 151.063,200.147 148.19,202.833 144.646,202.833C 141.102,202.833 138.229,200.147 138.229,196.833C 138.229,193.52 141.102,190.833 144.646,190.833 Z "/>
		<path fill="#96D224" fill-opacity="1" stroke-width="0.2" stroke-linejoin="round" d="M 162.563,116.167C 166.245,116.167 169.229,119.04 169.229,122.583C 169.229,126.127 166.245,129 162.563,129C 158.881,129 155.896,126.127 155.896,122.583C 155.896,119.04 158.881,116.167 162.563,116.167 Z "/>
	</g>
</svg>
